T: Yellow Glove, The
M: 4/4
L: 1/8
K: Dmix
A,|:DEFG Ad~d2|efge (3aba ge|fd~d2 ABcd|cAGE CDEC|
DEFG Ad~d2|efge a2 ge|defd ~c3 A|1GECE FDDA,:|2GECE FDDA||
|:Ad~d2 Ad
